packages/nuxt/static/assets/facebook.svg

<svg width="32" height="32" viewBox="0 0 32 32" fill="none" xmlns="http://www.w3.org/2000/svg">
<path d="M0 16C0 7.16344 7.16344 0 16 0C24.8366 0 32 7.16344 32 16C32 24.8366 24.8366 32 16 32C7.16344 32 0 24.8366 0 16Z" fill="white"/>
<path d="M18.7499 10.0023L17.0639 10C15.1703 10 13.946 11.1592 13.946 12.9531V14.3148H12.2514C12.1052 14.3148 11.9863 14.4245 11.9863 14.5595V16.5325C11.9863 16.6675 12.1052 16.7771 12.2514 16.7771H13.9465V21.7552C13.9465 21.8902 14.0653 21.9999 14.2116 21.9999H16.4231C16.5694 21.9999 16.6882 21.8902 16.6882 21.7552L16.6877 16.7771H18.6697C18.8159 16.7771 18.9348 16.6675 18.9348 16.5325L18.9358 14.5595C18.9358 14.4948 18.9078 14.4325 18.8581 14.3866C18.8083 14.3406 18.7408 14.3148 18.6707 14.3148H16.6877V13.1608C16.6877 12.6058 16.8309 12.3245 17.6139 12.3245L18.7494 12.3241C18.8957 12.3241 19.0145 12.2144 19.0145 12.0794V10.247C19.0145 10.1124 18.8962 10.0027 18.7499 10.0023L18.7499 10.0023Z" fill="#172ACB"/>
</svg>

<svg xmlns="http://www.w3.org/2000/svg" width="32" height="32" fill="none" xmlns:v="https://vecta.io/nano"><path d="M0 16C0 7.163 7.163 0 16 0s16 7.163 16 16-7.163 16-16 16S0 24.837 0 16z" fill="#fff"/><path d="M18.75 10.002L17.064 10c-1.894 0-3.118 1.159-3.118 2.953v1.362h-1.695c-.146 0-.265.11-.265.245v1.973c0 .135.119.245.265.245h1.695v4.978c0 .135.119.245.265.245h2.212c.146 0 .265-.11.265-.245v-4.978h1.982c.146 0 .265-.11.265-.245l.001-1.973c0-.065-.028-.127-.078-.173s-.117-.072-.187-.072h-1.983v-1.154c0-.555.143-.836.926-.836h1.136c.146 0 .265-.11.265-.245v-1.832c0-.135-.118-.244-.265-.245h0z" fill="#172acb"/></svg>
